X:6015
T:Gan Ainm
R:Jig
S:Natalie McMaster
H:
N:
D:Solo Album #1
Z:Adrian Scahill
M:6/8
L:1/8
K:G
EAA ABd|ege dBA|GEF GAB|dBA GED|\
EAA ABd|ege def|gag (3efg e|dBG A3:||\
eag {a}ged|eaa bag|efg d2g|eaf ged|\
eag {a}ged|eaa bag|efg edB|BAG A3:||


